X:1
T:Title
%%score { ( 1 3 ) | ( 2 4 ) }
L:1/8
M:3/4
K:Bb
V:1 treble nm="Grand Piano"
V:3 treble 
V:2 bass 
V:4 bass 
V:1
 z2 z2[Q:1/4=100] [DF]2 | [Fd]2 [Fd]2 [Fc]2 | [FB]2 [FB]2 [FA]2 | G2 G2 B2 | F4 [FB]2 | A2 A2 B2 | %6
 c2 c2 d2 | e2 e2 d2 |[M:2/4] c4 |[M:1/4] F2 |[M:3/4] [Fd]2 [Fd]2 [EFc]2 | [DFB]2 [DFB]2 [B,FA]2 | %12
 [B,EG]2 [B,EG]2 [EGB]2 |[M:4/4] [Ge]6 G2 |[M:3/4] F2 B2 c2 | d2 B2 d2 | c3 B c2 |[M:2/4] [B,DB]4 | %18
[M:1/4] d2 |[M:3/4] [DB]4 z2 | [B,DB]4 d2 | [DB]4 z2 | [B,DB]4 d2 | c4 z2 | c4 d2 | e4 z2 | %26
[M:2/4] c4 |[M:1/4] d2 |[M:3/4] [DB]4 z2 | [B,DB]4 d2 | [DB]4 z2 | [B,DB]4 [B,DF]2 | %32
 [B,EG]2 [FA]2 [B,FB]2 | [Fe]4 [Fd]2 | c3 B c2 |[M:2/4] [DB]4 |] %36
V:2
 z2 z2 [B,,B,]2 | [B,,B,]2 [B,,B,]2 [C,A,]2 | [D,B,]2 [D,B,]2 [D,B,]2 | %3
 [E,B,E]2 [E,B,E]2 [G,B,E]2 | [B,D]4 [D,B,]2 | [F,CF]2 [F,CF]2 [F,DF]2 | %6
 [F,A,F]2 [F,A,F]2 [F,B,F]2 | [F,CF]2 [F,CF]2 [F,B,F]2 |[M:2/4] [F,A,F]4 |[M:1/4] [F,A,]2 | %10
[M:3/4] [B,,B,]2 [B,,B,]2 B,,2 | B,,2 B,,2 D,2 | E,2 E,2 E,2 |[M:4/4] [E,B,]6 [E,B,E]2 | %14
[M:3/4] [F,B,D]2 [F,DF]2 [F,A,F]2 | [F,B,F]2 [F,DF]2 [F,B,F]2 | [F,A,E]3 [F,B,D] [F,A,E]2 | %17
[M:2/4] B,,4 |[M:1/4] F2 |[M:3/4] B,,2 B,,2 E,2 | B,,4 F2 | B,,2 B,,2 E,2 | B,,4[K:treble] F2 | %23
 F2- [F,F]2 [F,_A,F]2 | [F,A,F]4 F2 | F2- [F,F]2 [F,B,F]2 |[M:2/4] [F,A,F]4 |[M:1/4] F2 | %28
[M:3/4][K:bass] B,,2 B,,2 E,2 | B,,4 F2 | B,,2 B,,2 E,2 | B,,4 B,,2 | z2 C2 D,2 | %33
 [C,A,]4 [B,,B,]2 | [F,E]3- [F,G,E] [F,A,E]2 |[M:2/4] [B,,B,]4 |] %36
V:3
 x6 | x6 | x6 | x6 | x6 | x6 | x6 | x6 |[M:2/4] x4 |[M:1/4] x2 |[M:3/4] x6 | x6 | x6 |[M:4/4] x8 | %14
[M:3/4] x6 | x6 | x6 |[M:2/4] x4 |[M:1/4] x2 |[M:3/4] B,2 B,2 [B,EG]2 | x6 | B,2 B,2 [B,EG]2 | x6 | %23
 z2 A,2 =B2 | x6 | z2 C2 d2 |[M:2/4] x4 |[M:1/4] x2 |[M:3/4] B,2 B,2 [B,EG]2 | x6 | %30
 B,2 B,2 [B,EG]2 | x6 | x6 | x6 | x6 |[M:2/4] x4 |] %36
V:4
 x6 | x6 | x6 | x6 | x6 | x6 | x6 | x6 |[M:2/4] x4 |[M:1/4] x2 |[M:3/4] x6 | x6 | x6 |[M:4/4] x8 | %14
[M:3/4] x6 | x6 | x6 |[M:2/4] x4 |[M:1/4] x2 |[M:3/4] x6 | x6 | x6 | x4[K:treble] x2 | %23
 [F,A,]2 z2 z2 | x6 | [F,C]2 z2 z2 |[M:2/4] x4 |[M:1/4] x2 |[M:3/4][K:bass] x6 | x6 | x6 | x6 | %32
 E,4 z2 | x6 | A,4 z2 |[M:2/4] x4 |] %36

